X: 33318
T: Quark Soup
R: polka
M: 2/4
K: Edorian
|:E>F GE|BEGE|BEGB|ADFA|
E>FGE|BEGE|A>BAG|1 FDDF:|2 FD D2||
|:B>e ef|gfed|c>eef|gfed|
B>e ef|gfed|1 e>fed|cAAc:|2 BdAF|GE E2||

